X:18
T:Planxty Drury
Z: id:dc-ocarolan-23
M:6/8
L:1/8
K:D Major
A|d2d dcB|A2G F2G|E2e efd|c2B AFG|!
A2f fgf|e2d cBA|f2g afd|ced cBA|!
AFA AFA|Bcd ecA|afa gec|d3 d2:|!
B|ABA GAG|FGF E2E|E2E E2G|FDG FGE|!
D3 d3|efe ecA|ABc def|g2f edc|!
d2d ded|BAG Bcd|efe egf|efd cBA|!
d2F G2B|A2G FGA|BAG FGE|D3 D2:|!

